svgs/regular/battery-full.svg

<svg xmlns="http://www.w3.org/2000/svg" viewBox="0 0 576 512"><!--! Font Awesome Pro 6.6.0 by @fontawesome - https://fontawesome.com License - https://fontawesome.com/license (Commercial License) Copyright 2024 Fonticons, Inc. --><path d="M464 144c17.7 0 32 14.3 32 32l0 160c0 17.7-14.3 32-32 32L80 368c-17.7 0-32-14.3-32-32l0-160c0-17.7 14.3-32 32-32l384 0zM80 96C35.8 96 0 131.8 0 176L0 336c0 44.2 35.8 80 80 80l384 0c44.2 0 80-35.8 80-80l0-16c17.7 0 32-14.3 32-32l0-64c0-17.7-14.3-32-32-32l0-16c0-44.2-35.8-80-80-80L80 96zm368 96L96 192l0 128 352 0 0-128z"/></svg>

<svg xmlns="http://www.w3.org/2000/svg" viewBox="0 0 576 512"><!--! Font Awesome Pro 6.4.0 by @fontawesome - https://fontawesome.com License - https://fontawesome.com/license (Commercial License) Copyright 2023 Fonticons, Inc. --><path d="M464 144c17.7 0 32 14.3 32 32V336c0 17.7-14.3 32-32 32H80c-17.7 0-32-14.3-32-32V176c0-17.7 14.3-32 32-32H464zM80 96C35.8 96 0 131.8 0 176V336c0 44.2 35.8 80 80 80H464c44.2 0 80-35.8 80-80V320c17.7 0 32-14.3 32-32V224c0-17.7-14.3-32-32-32V176c0-44.2-35.8-80-80-80H80zm368 96H96V320H448V192z"/></svg>
